; generated by PrusaSlicer 2.7.1+win64 on 2024-01-21 at 06:23:46 UTC

; 

; external perimeters extrusion width = 0.61mm
; perimeters extrusion width = 0.65mm
; infill extrusion width = 0.70mm
; solid infill extrusion width = 0.65mm
; top infill extrusion width = 0.60mm
; support material extrusion width = 0.55mm
; first layer extrusion width = 0.65mm

; external perimeters extrusion width = 0.61mm
; perimeters extrusion width = 0.65mm
; infill extrusion width = 0.70mm
; solid infill extrusion width = 0.65mm
; top infill extrusion width = 0.60mm
; support material extrusion width = 0.55mm
; first layer extrusion width = 0.65mm

; external perimeters extrusion width = 0.61mm
; perimeters extrusion width = 0.65mm
; infill extrusion width = 0.70mm
; solid infill extrusion width = 0.65mm
; top infill extrusion width = 0.60mm
; support material extrusion width = 0.55mm
; first layer extrusion width = 0.65mm

M73 P0 R76
M201 X9000 Y9000 Z500 E10000 ; sets maximum accelerations, mm/sec^2
M203 X500 Y500 Z12 E120 ; sets maximum feedrates, mm / sec
M204 S2000 T1500 ; sets acceleration (S) and retract acceleration (R), mm/sec^2
M205 X10.00 Y10.00 Z0.20 E2.50 ; sets the jerk limits, mm/sec
M205 S0 T0 ; sets the minimum extruding and travel feed rate, mm/sec

; printing object esp32_cover id:0 copy 0
; stop printing object esp32_cover id:0 copy 0
; printing object po_cover id:1 copy 0
; stop printing object po_cover id:1 copy 0
; printing object opto_cover id:2 copy 0
; stop printing object opto_cover id:2 copy 0

;TYPE:Custom
M862.3 P "MK2S" ; printer model check
M862.1 P0.6 ; nozzle diameter check
M115 U3.2.3 ; tell printer latest fw version
G90 ; use absolute coordinates
M83 ; extruder relative mode
M204 S2000 T1500 ; MK2 firmware only supports the old M204 format
M104 S200 ; set extruder temp
M140 S55 ; set bed temp
M190 S55 ; wait for bed temp
M109 S200 ; wait for extruder temp
G28 W ; home all without mesh bed level
G80 ; mesh bed leveling
G1 Y-3.0 F1000.0 ; go outside print area
G92 E0.0
G1 X60.0 E9.0  F1000.0 ; intro line
G1 X100.0 E12.5 F1000.0 ; intro line
G92 E0.0
G21 ; set units to millimeters
G90 ; use absolute coordinates
M83 ; use relative distances for extrusion
M900 K0.04 ; Filament gcode LA 1.5
M900 K18 ; Filament gcode LA 1.0
M107
;LAYER_CHANGE
;Z:0.2
;HEIGHT:0.2
;BEFORE_LAYER_CHANGE
G92 E0.0
;0.2


G1 E-1 F2100
G1 Z.2 F10800
;AFTER_LAYER_CHANGE
;0.2
G1 X94.689 Y90.115
G1 Z.2
G1 E1 F2100
M204 S1000
;TYPE:Skirt/Brim
;WIDTH:0.65
G1 F1200
G1 X95.88 Y89.587 E.06576
G1 X155.348 Y79.678 E3.04327
G1 X171.545 Y79.652 E.81761
G1 X172.627 Y79.857 E.05559
G1 X173.245 Y80.145 E.03442
G1 X173.741 Y80.496 E.03067
G1 X174.499 Y81.381 E.05882
G1 X174.933 Y82.463 E.05885
G1 X175.02 Y83.245 E.03972
G1 X174.978 Y96.119 E.64987
G1 X161.288 Y148.743 E2.74482
G1 X158.56 Y156.669 E.42313
G1 X158.225 Y157.343 E.03799
G1 X157.69 Y158.046 E.04459
G1 X156.829 Y158.775 E.05695
G1 X156.115 Y159.156 E.04085
G1 X155.273 Y159.424 E.0446
G1 X154.309 Y159.528 E.04894
G1 X98.309 Y159.528 E2.82682
G1 X96.901 Y159.279 E.07218
G1 X96.217 Y159.023 E.03687
G1 X95.514 Y158.58 E.04194
G1 X95.076 Y158.199 E.0293
G1 X94.495 Y157.501 E.04584
G1 X93.984 Y156.505 E.05651
G1 X91.385 Y148.924 E.40454
G1 X91.203 Y147.849 E.05504
G1 X91.212 Y99.012 E2.46524
G1 X91.397 Y98.119 E.04603
G1 X93.855 Y91.277 E.36699
G1 X94.637 Y90.188 E.06768
; printing object po_cover id:1 copy 0
;WIPE_START
G1 F8640
G1 X94.689 Y90.115 E-.0207
G1 X95.88 Y89.587 E-.30082
G1 X98.778 Y89.104 E-.67848
;WIPE_END
G1 Z.6 F10800
G1 X133.896 Y115.433
G1 Z.2
G1 E1 F2100
;TYPE:Perimeter
;WIDTH:0.649999
G1 F1200
G1 X133.831 Y115.406 E.00355
G1 X133.396 Y115 E.03004
G1 X133.197 Y114.7 E.01817
G1 X133.034 Y114.095 E.03163
G1 X133.027 Y113.313 E.03948
G1 X133.109 Y112.799 E.02627
G1 X133.328 Y112.369 E.02436
G1 X133.525 Y112.132 E.01556
G1 X134.067 Y111.766 E.03301
G1 X134.284 Y111.698 E.01148
G1 X134.698 Y111.638 E.02112
G1 X135.419 Y111.638 E.0364
G1 X135.827 Y111.697 E.02081
G1 X136.344 Y111.929 E.0286
G1 X136.592 Y112.135 E.01627
G1 X136.889 Y112.522 E.02463
G1 X137.06 Y113.075 E.02922
G1 X137.091 Y113.323 E.01262
G1 X137.08 Y114.113 E.03988
G1 X136.999 Y114.478 E.01887
G1 X136.836 Y114.835 E.01981
G1 X136.594 Y115.154 E.02021
G1 X136.373 Y115.34 E.01458
;WIDTH:0.683598
G1 X136.137 Y115.45 E.01387
;WIDTH:0.717197
G1 X135.902 Y115.56 E.01455
;WIDTH:0.750795
G1 X135.666 Y115.67 E.01533
;WIDTH:0.786949
G1 X135.405 Y115.721 E.01645
G1 X135.124 Y115.695 E.01746
;WIDTH:0.741299
G1 X134.844 Y115.668 E.01634
;WIDTH:0.695649
G1 X134.563 Y115.642 E.01532
;WIDTH:0.649999
G1 X134.263 Y115.587 E.0154
G1 X133.979 Y115.468 E.01554
G1 X134.159 Y114.895 F10800
;TYPE:External perimeter
G1 F1200
G1 X133.783 Y114.518 E.02688
G1 X133.636 Y114.019 E.02626
G1 X133.634 Y113.313 E.03564
G1 X133.72 Y112.904 E.0211
G1 X133.942 Y112.576 E.01999
G1 X134.391 Y112.296 E.02671
G1 X134.698 Y112.246 E.0157
G1 X135.419 Y112.246 E.0364
G1 X135.818 Y112.329 E.02057
G1 X136.127 Y112.526 E.0185
G1 X136.375 Y112.864 E.02116
G1 X136.484 Y113.315 E.02342
G1 X136.473 Y114.105 E.03988
G1 X136.284 Y114.584 E.02599
G1 X135.982 Y114.876 E.02121
G1 X135.497 Y115.035 E.02576
G1 X134.571 Y115.035 E.04674
G1 X134.244 Y114.924 E.01743
;WIPE_START
G1 F8640
G1 X134.159 Y114.895 E-.02074
G1 X133.783 Y114.518 E-.12294
G1 X133.636 Y114.019 E-.12012
G1 X133.634 Y113.313 E-.16302
G1 X133.72 Y112.904 E-.0965
G1 X133.942 Y112.576 E-.09145
G1 X134.391 Y112.296 E-.12218
G1 X134.698 Y112.246 E-.07182
G1 X135.419 Y112.246 E-.16648
G1 X135.524 Y112.268 E-.02475
;WIPE_END
G1 Z.6 F10800
G1 X135.309 Y116.558
G1 Z.2
G1 E1 F2100
;TYPE:Perimeter
;WIDTH:0.786949
G1 F1200
G1 X135.46 Y116.461 E.0111
G1 X135.69 Y116.477 E.01426
;WIDTH:0.745915
G1 X135.921 Y116.493 E.01354
;WIDTH:0.704881
G1 X136.151 Y116.51 E.01269
;WIDTH:0.663847
G1 X136.802 Y116.517 E.03361
;WIDTH:0.649999
G1 X139.06 Y116.517 E.11398
G1 X139.371 Y116.572 E.01594
G1 X139.698 Y116.778 E.01951
G1 X139.903 Y117.084 E.01859
G1 X139.97 Y117.427 E.01764
G1 X139.97 Y119.37 E.09808
G1 X139.893 Y119.737 E.01893
G1 X139.662 Y120.053 E.01976
G1 X139.347 Y120.234 E.01834
G1 X138.904 Y120.281 E.02249
G1 X135.617 Y120.281 E.16592
G1 X135.252 Y120.205 E.01882
G1 X134.944 Y119.984 E.01914
G1 X134.783 Y119.736 E.01493
G1 X134.706 Y119.37 E.01888
G1 X134.706 Y117.427 E.09808
G1 X134.762 Y117.113 E.0161
G1 X134.883 Y116.888 E.0129
G1 X134.996 Y116.761 E.00858
;WIDTH:0.695649
G1 X135.15 Y116.661 E.00997
;WIDTH:0.741299
G1 X135.234 Y116.607 E.0058
G1 X135.568 Y117.128 F10800
;TYPE:External perimeter
;WIDTH:0.649999
G1 F1200
G1 X139.06 Y117.124 E.17627
G1 X139.24 Y117.183 E.00956
G1 X139.341 Y117.313 E.00831
G1 X139.363 Y119.37 E.10384
G1 X139.294 Y119.563 E.01035
G1 X139.114 Y119.669 E.01054
G1 X135.617 Y119.674 E.17652
G1 X135.45 Y119.624 E.0088
G1 X135.339 Y119.492 E.00871
G1 X135.313 Y119.37 E.0063
G1 X135.313 Y117.427 E.09808
G1 X135.372 Y117.247 E.00956
G1 X135.491 Y117.175 E.00702
;WIPE_START
G1 F8640
G1 X135.568 Y117.128 E-.02083
G1 X139.06 Y117.124 E-.80631
G1 X139.24 Y117.183 E-.04374
G1 X139.341 Y117.313 E-.03801
G1 X139.345 Y117.708 E-.09111
;WIPE_END
G1 Z.6 F10800
G1 X128.914 Y117.148
G1 Z.2
G1 E1 F2100
;TYPE:Perimeter
G1 F1200
G1 X128.97 Y117.486 E.01729
G1 X128.97 Y119.37 E.0951
G1 X128.894 Y119.736 E.01887
G1 X128.685 Y120.032 E.01829
G1 X128.528 Y120.151 E.00994
G1 X128.221 Y120.266 E.01655
G1 X124.617 Y120.281 E.18193
G1 X124.252 Y120.205 E.01882
G1 X123.981 Y120.022 E.01651
G1 X123.782 Y119.734 E.01767
G1 X123.706 Y119.37 E.01877
G1 X123.706 Y117.427 E.09808
G1 X123.762 Y117.113 E.0161
G1 X123.883 Y116.888 E.0129
G1 X123.996 Y116.761 E.00858
;WIDTH:0.69565
G1 X124.15 Y116.661 E.00997
;WIDTH:0.741301
G1 X124.305 Y116.561 E.01071
;WIDTH:0.786951
G1 X124.46 Y116.461 E.01141
G1 X124.69 Y116.477 E.01426
;WIDTH:0.745914
G1 X124.921 Y116.493 E.01354
;WIDTH:0.704877
G1 X125.151 Y116.51 E.01269
;WIDTH:0.66384
G1 X125.802 Y116.517 E.03361
;WIDTH:0.649999
G1 X128.06 Y116.517 E.11398
G1 X128.371 Y116.572 E.01594
G1 X128.698 Y116.778 E.01951
G1 X128.889 Y117.063 E.01732
G1 X128.341 Y117.313 F10800
;TYPE:External perimeter
G1 F1200
G1 X128.363 Y117.486 E.0088
G1 X128.363 Y119.37 E.0951
G1 X128.294 Y119.563 E.01035
G1 X128.216 Y119.631 E.00522
G1 X128.06 Y119.674 E.00817
G1 X124.617 Y119.674 E.1738
G1 X124.45 Y119.624 E.0088
G1 X124.325 Y119.455 E.01061
G1 X124.313 Y119.37 E.00433
G1 X124.313 Y117.427 E.09808
G1 X124.372 Y117.247 E.00956
G1 X124.568 Y117.128 E.01157
G1 X128.06 Y117.124 E.17627
G1 X128.24 Y117.183 E.00956
G1 X128.285 Y117.242 E.00375
;WIPE_START
G1 F8640
G1 X128.341 Y117.313 E-.02088
G1 X128.363 Y117.486 E-.04027
G1 X128.363 Y119.37 E-.43502
G1 X128.294 Y119.563 E-.04733
G1 X128.216 Y119.631 E-.02389
G1 X128.06 Y119.674 E-.03736
G1 X126.348 Y119.674 E-.39525
;WIPE_END
G1 Z.6 F10800
G1 X124.914 Y124.235
G1 Z.2
G1 E1 F2100
;TYPE:Perimeter
G1 F1200
G1 X125.344 Y124.429 E.02381
G1 X125.592 Y124.635 E.01627
G1 X125.889 Y125.022 E.02463
G1 X126.06 Y125.575 E.02922
G1 X126.091 Y125.823 E.01262
G1 X126.08 Y126.613 E.03988
G1 X125.999 Y126.978 E.01887
G1 X125.836 Y127.335 E.01981
G1 X125.594 Y127.654 E.02021
G1 X125.373 Y127.84 E.01458
;WIDTH:0.683598
G1 X125.137 Y127.95 E.01387
;WIDTH:0.717196
G1 X124.902 Y128.06 E.01455
;WIDTH:0.750794
G1 X124.666 Y128.17 E.01533
;WIDTH:0.786951
G1 X124.405 Y128.221 E.01645
G1 X124.124 Y128.195 E.01746
;WIDTH:0.741301
G1 X123.844 Y128.168 E.01634
;WIDTH:0.69565
G1 X123.564 Y128.142 E.01526
;WIDTH:0.649999
G1 X123.191 Y128.057 E.01931
G1 X122.723 Y127.83 E.02626
G1 X122.515 Y127.648 E.01395
G1 X122.234 Y127.281 E.02333
G1 X122.059 Y126.722 E.02957
G1 X122.027 Y126.481 E.01227
G1 X122.027 Y125.81 E.03387
G1 X122.109 Y125.299 E.02612
G1 X122.236 Y125.036 E.01474
G1 X122.581 Y124.573 E.02915
G1 X122.989 Y124.306 E.02461
G1 X123.284 Y124.198 E.01586
G1 X123.698 Y124.138 E.02112
G1 X124.419 Y124.138 E.0364
G1 X124.827 Y124.197 E.02081
G1 X124.832 Y124.199 E.00027
;WIPE_START
G1 F8640
G1 X124.914 Y124.235 E-.02068
G1 X125.344 Y124.429 E-.10893
;WIPE_END
G1 E-.87039 F2100
G1 Z.6 F10800
G1 X125.284 Y127.084
G1 Z.2
G1 E1 F2100
;TYPE:External perimeter
G1 F1200
G1 X124.982 Y127.376 E.02121
G1 X124.497 Y127.535 E.02576
G1 X123.572 Y127.535 E.04669
G1 X123.084 Y127.338 E.02657
G1 X122.808 Y127.053 E.02003
G1 X122.645 Y126.561 E.02616
G1 X122.634 Y125.813 E.03776
G1 X122.714 Y125.417 E.02039
G1 X123.011 Y125.001 E.0258
G1 X123.391 Y124.796 E.0218
G1 X123.698 Y124.746 E.0157
G1 X124.419 Y124.746 E.0364
G1 X124.818 Y124.829 E.02057
G1 X125.045 Y124.957 E.01315
G1 X125.351 Y125.302 E.02328
G1 X125.484 Y125.811 E.02656
G1 X125.473 Y126.605 E.04008
G1 X125.317 Y127 E.02144
;WIPE_START
G1 F8640
G1 X125.284 Y127.084 E-.02084
G1 X124.982 Y127.376 E-.097
G1 X124.497 Y127.535 E-.11785
G1 X123.572 Y127.535 E-.21359
G1 X123.084 Y127.338 E-.12152
G1 X122.808 Y127.053 E-.09161
G1 X122.645 Y126.561 E-.11968
G1 X122.634 Y125.813 E-.17273
G1 X122.673 Y125.621 E-.04518
;WIPE_END
G1 Z.6 F10800
G1 X124.605 Y128.971
G1 Z.2
G1 E1 F2100
;TYPE:Perimeter
;WIDTH:0.786951
G1 F1200
G1 X124.69 Y128.977 E.00527
;WIDTH:0.745916
G1 X124.921 Y128.993 E.01354
;WIDTH:0.704881
G1 X125.151 Y129.01 E.01269
;WIDTH:0.663845
G1 X125.802 Y129.017 E.03361
;WIDTH:0.649999
G1 X128.06 Y129.017 E.11398
G1 X128.371 Y129.072 E.01594
G1 X128.698 Y129.278 E.01951
G1 X128.903 Y129.584 E.01859
G1 X128.97 Y129.927 E.01764
G1 X128.97 Y131.87 E.09808
G1 X128.894 Y132.236 E.01887
G1 X128.685 Y132.532 E.01829
G1 X128.412 Y132.71 E.01645
G1 X128.06 Y132.781 E.01813
G1 X124.617 Y132.781 E.1738
G1 X124.252 Y132.705 E.01882
G1 X123.944 Y132.484 E.01914
G1 X123.783 Y132.236 E.01493
G1 X123.706 Y131.87 E.01888
G1 X123.706 Y129.927 E.09808
G1 X123.777 Y129.574 E.01818
G1 X123.996 Y129.261 E.01928
;WIDTH:0.69565
G1 X124.151 Y129.161 E.01001
;WIDTH:0.741301
G1 X124.305 Y129.061 E.01066
;WIDTH:0.786951
G1 X124.46 Y128.961 E.01141
G1 X124.516 Y128.965 E.00347
G1 X124.41 Y129.705 F10800
;TYPE:External perimeter
;WIDTH:0.649999
G1 F1200
G1 X124.617 Y129.624 E.01122
G1 X128.06 Y129.624 E.1738
G1 X128.24 Y129.683 E.00956
G1 X128.354 Y129.852 E.01029
G1 X128.363 Y130.002 E.00759
G1 X128.363 Y131.87 E.09429
G1 X128.294 Y132.063 E.01035
G1 X128.114 Y132.169 E.01054
G1 X124.617 Y132.174 E.17652
G1 X124.45 Y132.124 E.0088
G1 X124.325 Y131.955 E.01061
G1 X124.313 Y131.87 E.00433
G1 X124.313 Y129.927 E.09808
G1 X124.358 Y129.777 E.00791
;WIPE_START
G1 F8640
G1 X124.41 Y129.705 E-.02051
G1 X124.617 Y129.624 E-.05133
G1 X128.06 Y129.624 E-.795
G1 X128.24 Y129.683 E-.04374
G1 X128.354 Y129.852 E-.04707
G1 X128.363 Y130.002 E-.0347
G1 X128.363 Y130.035 E-.00765
;WIPE_END
G1 Z.6 F10800
G1 X125.517 Y137.073
G1 Z.2
G1 E1 F2100
;TYPE:Perimeter
G1 F1200
G1 X125.592 Y137.135 E.00491
G1 X125.889 Y137.522 E.02463
G1 X126.06 Y138.075 E.02922
G1 X126.091 Y138.323 E.01262
G1 X126.08 Y139.113 E.03988
G1 X125.999 Y139.478 E.01887
G1 X125.836 Y139.835 E.01981
G1 X125.594 Y140.154 E.02021
G1 X125.373 Y140.34 E.01458
;WIDTH:0.683597
G1 X125.137 Y140.45 E.01387
;WIDTH:0.717195
G1 X124.902 Y140.56 E.01455
;WIDTH:0.750792
G1 X124.666 Y140.67 E.01533
;WIDTH:0.786948
G1 X124.405 Y140.721 E.01645
G1 X124.124 Y140.695 E.01746
;WIDTH:0.741299
G1 X123.844 Y140.668 E.01634
;WIDTH:0.695649
G1 X123.563 Y140.642 E.01532
;WIDTH:0.649999
G1 X123.263 Y140.587 E.0154
G1 X122.831 Y140.406 E.02364
G1 X122.397 Y140.002 E.02993
G1 X122.197 Y139.701 E.01824
G1 X122.034 Y139.096 E.03163
G1 X122.027 Y138.313 E.03953
G1 X122.109 Y137.799 E.02627
G1 X122.328 Y137.369 E.02436
G1 X122.525 Y137.132 E.01556
G1 X123.067 Y136.766 E.03301
G1 X123.616 Y136.642 E.02841
G1 X124.419 Y136.638 E.04053
G1 X124.827 Y136.697 E.02081
G1 X125.344 Y136.929 E.0286
G1 X125.447 Y137.015 E.00677
G1 X125.128 Y137.526 F10800
;TYPE:External perimeter
G1 F1200
G1 X125.375 Y137.864 E.02113
G1 X125.484 Y138.315 E.02342
G1 X125.473 Y139.105 E.03988
G1 X125.284 Y139.584 E.02599
G1 X124.982 Y139.876 E.02121
G1 X124.497 Y140.035 E.02576
G1 X123.571 Y140.035 E.04674
G1 X123.159 Y139.895 E.02197
G1 X122.783 Y139.519 E.02684
G1 X122.636 Y139.019 E.02631
G1 X122.634 Y138.313 E.03564
G1 X122.72 Y137.904 E.0211
G1 X122.942 Y137.576 E.01999
G1 X123.391 Y137.296 E.02671
G1 X123.698 Y137.246 E.0157
G1 X124.419 Y137.246 E.0364
G1 X124.818 Y137.329 E.02057
G1 X125.052 Y137.478 E.014
;WIPE_START
G1 F8640
G1 X125.128 Y137.526 E-.02076
G1 X125.375 Y137.864 E-.09666
G1 X125.484 Y138.315 E-.10714
G1 X125.473 Y139.105 E-.18243
G1 X125.284 Y139.584 E-.1189
G1 X124.982 Y139.876 E-.097
G1 X124.497 Y140.035 E-.11785
G1 X123.571 Y140.035 E-.21382
G1 X123.385 Y139.972 E-.04544
;WIPE_END
G1 Z.6 F10800
G1 X124.309 Y141.558
G1 Z.2
G1 E1 F2100
;TYPE:Perimeter
;WIDTH:0.786948
G1 F1200
G1 X124.46 Y141.461 E.0111
G1 X124.69 Y141.477 E.01426
;WIDTH:0.745911
G1 X124.921 Y141.493 E.01354
;WIDTH:0.704873
G1 X125.151 Y141.51 E.01269
;WIDTH:0.663835
G1 X125.802 Y141.517 E.03361
;WIDTH:0.649999
G1 X128.06 Y141.517 E.11398
G1 X128.371 Y141.572 E.01594
G1 X128.698 Y141.778 E.01951
G1 X128.903 Y142.084 E.01859
G1 X128.97 Y142.486 E.02057
G1 X128.97 Y144.37 E.0951
G1 X128.894 Y144.736 E.01887
G1 X128.685 Y145.032 E.01829
G1 X128.412 Y145.21 E.01645
G1 X128.06 Y145.281 E.01813
G1 X124.617 Y145.281 E.1738
G1 X124.252 Y145.205 E.01882
G1 X123.981 Y145.022 E.01651
G1 X123.782 Y144.734 E.01767
G1 X123.706 Y144.37 E.01877
G1 X123.706 Y142.427 E.09808
G1 X123.762 Y142.113 E.0161
G1 X123.883 Y141.887 E.01294
G1 X123.996 Y141.761 E.00854
;WIDTH:0.695649
G1 X124.15 Y141.661 E.00997
;WIDTH:0.741299
G1 X124.234 Y141.607 E.0058
G1 X124.568 Y142.128 F10800
;TYPE:External perimeter
;WIDTH:0.649999
G1 F1200
G1 X128.06 Y142.124 E.17627
G1 X128.24 Y142.183 E.00956
G1 X128.341 Y142.313 E.00831
G1 X128.363 Y142.486 E.0088
G1 X128.363 Y144.37 E.0951
G1 X128.294 Y144.563 E.01035
G1 X128.114 Y144.669 E.01054
G1 X124.617 Y144.674 E.17652
G1 X124.45 Y144.624 E.0088
G1 X124.338 Y144.491 E.00878
G1 X124.313 Y144.37 E.00624
G1 X124.313 Y142.427 E.09808
G1 X124.372 Y142.247 E.00956
G1 X124.491 Y142.175 E.00702
;WIPE_START
G1 F8640
G1 X124.568 Y142.128 E-.02083
